X:6500
T:the Unknown Piper (slow mazurka)
M:3/4
O:France
R:Mazurka
Z:Richard Robinson 
%%TUNEURL: http://www.leeds.ac.uk/music/Info/RRTuneBk/gettune/00000738.html
%%ID:00000738
K:C
e2 e2 f>d | e2 [c2e] f>g | f3e dc |[B3d3] c cd|\
e2 e2 f>d | e2 [c2e] f>g | f3e dc |1 \
[B3d3] c cd :|2 d2 de fg |
|:a2 c'b a2 | g2 gf ed | cB cd ec | B4 cB |\
A2 AB cd | c2 B2 A2 | B2 Bc de \
|1d3e fg :|2 c3c cd||
